contributed-vectors/microsoft-math.svg

<svg xmlns="http://www.w3.org/2000/svg" viewBox="0 0 192 192"><path fill="#96dfd3" d="M18 32.5a10 10 0 0 0-10 10v107a10 10 0 0 0 10 10h14.5v-127Z"/><path fill="#54688c" d="M174 32.5h-14.5v127H174a10 10 0 0 0 10-10v-107a10 10 0 0 0-10-10ZM32.5 174a10 10 0 0 0 10 10h107a10 10 0 0 0 10-10v-14.5h-127Z"/><path fill="#96dfd3" d="M159.5 18a10 10 0 0 0-10-10h-107a10 10 0 0 0-10 10v14.5h127Z"/><path fill="#728dbe" d="M32.5 32.5h127v127h-127z"/><path fill="#fff" d="M70.24 125.73a4.82 4.82 0 0 1-4.39-2.83l-13-28.64a4.82 4.82 0 0 1 8.77-4L70 108.69l15.88-39.38a4.92 4.92 0 0 1 4.47-3.12h44.4a5.1 5.1 0 0 1 0 10.19H93.59l-18.88 46.51a4.75 4.75 0 0 1-4.37 2.92s-.07-.08-.1-.08Z"/><path fill="#fff" d="M132 85.73h-6.84a1.17 1.17 0 0 0-1 .62l-6.4 12.54a1.15 1.15 0 0 1-2.05 0l-6.4-12.54a1.17 1.17 0 0 0-1-.62h-6.91a1.14 1.14 0 0 0-1 1.73L110.75 105a1.17 1.17 0 0 1 0 1.22l-11.5 17.65a1.15 1.15 0 0 0 1 1.78h6.83a1.15 1.15 0 0 0 1-.59l7.18-13a1.16 1.16 0 0 1 2 0l6.89 13a1.14 1.14 0 0 0 1 .61H132a1.15 1.15 0 0 0 1-1.76l-11.08-17.61a1.12 1.12 0 0 1 0-1.22L133 87.49a1.15 1.15 0 0 0-1-1.76Z"/></svg>

<svg xmlns="http://www.w3.org/2000/svg" viewBox="0 0 192 192"><title>Microsoft Math</title><path d="M18,32.5a10,10,0,0,0-10,10v107a10,10,0,0,0,10,10H32.5V32.5Z" fill="#96dfd3"/><path d="M174,32.5H159.5v127H174a10,10,0,0,0,10-10V42.5A10,10,0,0,0,174,32.5Z" fill="#54688c"/><path d="M32.5,174a10,10,0,0,0,10,10h107a10,10,0,0,0,10-10V159.5H32.5Z" fill="#54688c"/><path d="M159.5,18a10,10,0,0,0-10-10H42.5a10,10,0,0,0-10,10V32.5h127Z" fill="#96dfd3"/><rect x="32.5" y="32.5" width="127" height="127" fill="#728dbe"/><path d="M70.24,125.73a4.82,4.82,0,0,1-4.39-2.83l-13-28.64a4.82,4.82,0,0,1,8.77-4L70,108.69,85.88,69.31a4.92,4.92,0,0,1,4.47-3.12h44.4a5.1,5.1,0,0,1,0,10.19H93.59L74.71,122.89a4.75,4.75,0,0,1-4.37,2.92S70.27,125.73,70.24,125.73Z" fill="#fff"/><path d="M132,85.73h-6.84a1.17,1.17,0,0,0-1,.62l-6.4,12.54a1.15,1.15,0,0,1-2.05,0l-6.4-12.54a1.17,1.17,0,0,0-1-.62h-6.91a1.14,1.14,0,0,0-1,1.73L110.75,105a1.17,1.17,0,0,1,0,1.22L99.25,123.87a1.15,1.15,0,0,0,1,1.78h6.83a1.15,1.15,0,0,0,1-.59l7.18-13a1.16,1.16,0,0,1,2,0l6.89,13a1.14,1.14,0,0,0,1,.61H132a1.15,1.15,0,0,0,1-1.76L121.92,106.3a1.12,1.12,0,0,1,0-1.22L133,87.49A1.15,1.15,0,0,0,132,85.73Z" fill="#fff"/></svg>
